icon/cg/format-text.svg

<svg width="24" height="24" fill="none" xmlns="http://www.w3.org/2000/svg"><path d="M6.5 3H3v3.5h1V4h2.5V3ZM8.5 4V3H11v1H8.5ZM13 4h2.5V3H13v1ZM17.5 3v1H20v2.5h1V3h-3.5ZM21 8.5h-1V11h1V8.5ZM21 13h-1v2.5h1V13ZM21 17.5h-1V20h-2.5v1H21v-3.5ZM15.5 21v-1H13v1h2.5ZM11 21v-1H8.5v1H11ZM6.5 21v-1H4v-2.5H3V21h3.5ZM3 15.5h1V13H3v2.5ZM3 11h1V8.5H3V11ZM11 9.5H7v-2h10v2h-4v7h-2v-7Z" fill="currentColor"/></svg>

<svg viewBox="0 0 24 24" fill="none" xmlns="http://www.w3.org/2000/svg" height="1em" width="1em">
  <path d="M6.5 3H3V6.5H4V4H6.5V3Z" fill="currentColor"/>
  <path d="M8.5 4V3H11V4H8.5Z" fill="currentColor"/>
  <path d="M13 4H15.5V3H13V4Z" fill="currentColor"/>
  <path d="M17.5 3V4H20V6.5H21V3H17.5Z" fill="currentColor"/>
  <path d="M21 8.5H20V11H21V8.5Z" fill="currentColor"/>
  <path d="M21 13H20V15.5H21V13Z" fill="currentColor"/>
  <path d="M21 17.5H20V20H17.5V21H21V17.5Z" fill="currentColor"/>
  <path d="M15.5 21V20H13V21H15.5Z" fill="currentColor"/>
  <path d="M11 21V20H8.5V21H11Z" fill="currentColor"/>
  <path d="M6.5 21V20H4V17.5H3V21H6.5Z" fill="currentColor"/>
  <path d="M3 15.5H4V13H3V15.5Z" fill="currentColor"/>
  <path d="M3 11H4V8.5H3V11Z" fill="currentColor"/>
  <path d="M11 9.5H7V7.5H17V9.5H13V16.5H11V9.5Z" fill="currentColor"/>
</svg>
